public/images/your-project-token.svg

<svg width="64" height="64" viewBox="0 0 64 64" fill="none" xmlns="http://www.w3.org/2000/svg">
<path d="M64 32C64 49.6731 49.6731 64 32 64C14.3269 64 0 49.6731 0 32C0 14.3269 14.3269 0 32 0C49.6731 0 64 14.3269 64 32Z" fill="#E9EAEB"/>
<mask id="mask0" mask-type="alpha" maskUnits="userSpaceOnUse" x="3" y="3" width="58" height="58">
<path d="M60.6667 32C60.6667 47.8322 47.8322 60.6667 32 60.6667C16.1678 60.6667 3.33333 47.8322 3.33333 32C3.33333 16.1678 16.1678 3.33333 32 3.33333C47.8322 3.33333 60.6667 16.1678 60.6667 32Z" fill="#C4C4C4"/>
</mask>
<g mask="url(#mask0)">
<path fill-rule="evenodd" clip-rule="evenodd" d="M18.6602 20.6803C23.2257 20.5655 26.7399 24.6469 25.9591 29.1448L24.6078 36.9285C26.8709 36.4901 29.2714 36.2555 31.7537 36.2555C33.5167 36.2555 35.2377 36.3739 36.8968 36.5992L43.81 26.2868C46.0189 22.9917 50.4808 22.1112 53.7759 24.3201C57.5846 26.8734 58.0583 32.2933 54.7501 35.4685L49.1187 40.8736C53.2485 43.5563 56.116 47.3757 56.1161 51.917V55.3973C56.1161 60.128 52.9864 64.0887 48.6113 66.7624C44.2019 69.457 38.2369 71.0589 31.7537 71.0589C25.2704 71.0589 19.3054 69.457 14.8961 66.7624C10.5209 64.0887 7.39128 60.128 7.39128 55.3973V51.9171C7.39131 48.381 9.15226 45.2595 11.8564 42.8075L11.5646 28.1026C11.4852 24.1022 14.6603 20.7809 18.6602 20.6803ZM13.8818 43.6901C13.8669 43.5655 13.8581 43.439 13.8555 43.3108L13.5529 28.0631C13.4953 25.1568 15.8043 22.7415 18.7102 22.6685C22.0188 22.5852 24.5663 25.5405 23.9996 28.8046L22.1307 39.57C22.8161 39.3702 23.5207 39.1911 24.2423 39.0339C26.5901 38.5227 29.1187 38.2443 31.7537 38.2443C33.9222 38.2443 36.0188 38.4329 38.0017 38.7846C38.1088 38.4542 38.263 38.1329 38.466 37.8301L45.4619 27.3942C47.0592 25.0114 50.2857 24.3747 52.6685 25.9721C55.4227 27.8184 55.7652 31.7376 53.3729 34.0337L45.8194 41.2836C46.4569 41.5989 47.0654 41.9352 47.6422 42.2907C51.651 44.7616 54.1273 48.1626 54.1273 51.917V55.3973C54.1273 62.9486 44.1103 69.0701 31.7537 69.0701C19.3971 69.0701 9.38005 62.9486 9.38005 55.3973V51.9171C9.38007 48.8286 11.0558 45.9792 13.8818 43.6901Z" fill="#BDC2C4"/>
<path d="M54.1273 55.3974C54.1273 62.9487 44.1103 69.0702 31.7537 69.0702C19.3971 69.0702 9.38004 62.9487 9.38004 55.3974V51.9171H54.1273V55.3974Z" fill="#E9EAEB"/>
<path fill-rule="evenodd" clip-rule="evenodd" d="M23.9996 28.8045C24.5663 25.5404 22.0188 22.5852 18.7102 22.6684C15.8043 22.7415 13.4953 25.1567 13.5529 28.063L13.8555 43.3107C13.8581 43.4389 13.8669 43.5654 13.8818 43.6901C11.0557 45.9792 9.38004 48.8285 9.38004 51.917C9.38004 59.4683 19.3971 65.5898 31.7537 65.5898C44.1103 65.5898 54.1273 59.4683 54.1273 51.917C54.1273 47.6224 50.8872 43.7902 45.8194 41.2836L53.3729 34.0336C55.7652 31.7376 55.4227 27.8183 52.6685 25.972C50.2857 24.3747 47.0592 25.0114 45.4619 27.3941L38.466 37.83C38.263 38.1328 38.1088 38.4541 38.0017 38.7845C36.0188 38.4328 33.9222 38.2442 31.7537 38.2442C28.3087 38.2442 25.0456 38.72 22.1307 39.57L23.9996 28.8045Z" fill="#E9EAEB"/>
<path d="M28.5221 50.9227C28.5221 52.9821 27.4091 54.6516 26.0362 54.6516C24.6632 54.6516 23.5502 52.9821 23.5502 50.9227C23.5502 48.8633 24.6632 47.1938 26.0362 47.1938C27.4091 47.1938 28.5221 48.8633 28.5221 50.9227Z" fill="#BDC2C4"/>
<path fill-rule="evenodd" clip-rule="evenodd" d="M25.681 48.0313C26.1876 48.7913 26.5333 49.8985 26.5333 51.1712C26.5333 51.7204 26.9785 52.1656 27.5277 52.1656C28.0769 52.1656 28.5221 51.7204 28.5221 51.1712C28.5221 49.5607 28.0887 48.0576 27.3357 46.9282C26.5874 45.8056 25.4444 44.9563 24.0474 44.9563C22.6504 44.9563 21.5074 45.8056 20.759 46.9282C20.0061 48.0576 19.5726 49.5607 19.5726 51.1712C19.5726 52.0443 19.6998 52.8806 19.9329 53.6411C20.0938 54.1661 20.6499 54.4613 21.175 54.3004C21.7001 54.1394 21.9953 53.5833 21.8343 53.0582C21.6609 52.4926 21.5614 51.8532 21.5614 51.1712C21.5614 49.8985 21.9071 48.7913 22.4138 48.0313C22.9251 47.2644 23.5222 46.9451 24.0474 46.9451C24.5725 46.9451 25.1697 47.2644 25.681 48.0313Z" fill="#BDC2C4"/>
<path fill-rule="evenodd" clip-rule="evenodd" d="M42.8341 48.0313C43.3407 48.7913 43.6864 49.8985 43.6864 51.1712C43.6864 51.7204 44.1316 52.1656 44.6808 52.1656C45.23 52.1656 45.6752 51.7204 45.6752 51.1712C45.6752 49.5607 45.2418 48.0576 44.4888 46.9282C43.7405 45.8056 42.5975 44.9563 41.2005 44.9563C39.8035 44.9563 38.6604 45.8056 37.9121 46.9282C37.1591 48.0576 36.7257 49.5607 36.7257 51.1712C36.7257 52.0443 36.8529 52.8806 37.086 53.6411C37.2469 54.1661 37.803 54.4613 38.3281 54.3004C38.8532 54.1394 39.1484 53.5833 38.9874 53.0582C38.814 52.4926 38.7145 51.8532 38.7145 51.1712C38.7145 49.8985 39.0602 48.7913 39.5669 48.0313C40.0782 47.2644 40.6753 46.9451 41.2005 46.9451C41.7256 46.9451 42.3228 47.2644 42.8341 48.0313Z" fill="#BDC2C4"/>
<path d="M45.675 50.9227C45.675 52.9821 44.562 54.6516 43.1891 54.6516C41.8161 54.6516 40.7031 52.9821 40.7031 50.9227C40.7031 48.8633 41.8161 47.1938 43.1891 47.1938C44.562 47.1938 45.675 48.8633 45.675 50.9227Z" fill="#BDC2C4"/>
<path d="M30.2419 23.0636V22.4622C30.2419 21.618 30.4108 20.911 30.7484 20.3412C31.1072 19.7714 31.582 19.2122 32.1729 18.6635C32.7216 18.1359 33.2598 17.6821 33.7874 17.3023C34.315 16.9224 34.7476 16.5214 35.0853 16.0993C35.4229 15.6773 35.5918 15.1813 35.5918 14.6115C35.5918 13.7885 35.2963 13.2081 34.7054 12.8704C34.1356 12.5117 33.1754 12.3323 31.8247 12.3323C30.9383 12.3323 30.0625 12.4484 29.1973 12.6805C28.332 12.8915 27.5934 13.1659 26.9814 13.5036V9.23001C27.7622 8.85014 28.6802 8.54413 29.7354 8.31199C30.8117 8.07985 31.983 7.96378 33.2492 7.96378C35.6973 7.96378 37.565 8.50193 38.8523 9.57823C40.1397 10.6334 40.7833 12.0896 40.7833 13.9467C40.7833 15.1286 40.5406 16.0888 40.0553 16.8274C39.5699 17.545 38.8629 18.2836 37.9343 19.0433C37.1535 19.6976 36.4992 20.2674 35.9716 20.7528C35.444 21.2171 35.1802 21.8502 35.1802 22.6521V23.0636H30.2419ZM30.0203 28.6667V24.9947H35.3702V28.6667H30.0203Z" fill="#BDC2C4"/>
</g>
<path fill-rule="evenodd" clip-rule="evenodd" d="M63.9856 32.9689L61.9865 32.9094C61.9955 32.6074 62 32.3043 62 32C62 31.6957 61.9955 31.3926 61.9865 31.0906L63.9856 31.0311C63.9952 31.3529 64 31.6759 64 32C64 32.3241 63.9952 32.6471 63.9856 32.9689ZM63.8706 29.1021L61.8786 29.2809C61.8242 28.6759 61.752 28.0762 61.6624 27.4823L63.64 27.1838C63.7356 27.8173 63.8126 28.4569 63.8706 29.1021ZM63.2935 25.2813L61.3376 25.6992C61.2109 25.1059 61.0666 24.5192 60.9053 23.9396L62.8321 23.4035C63.0042 24.0221 63.1582 24.6482 63.2935 25.2813ZM62.2575 21.5578L60.3669 22.2101C60.1694 21.6377 59.955 21.0731 59.7244 20.5169L61.5718 19.7508C61.818 20.3443 62.0467 20.9469 62.2575 21.5578ZM60.7775 17.9885L58.9799 18.8653C58.7145 18.3213 58.4331 17.7864 58.1364 17.2613L59.8775 16.2772C60.1941 16.8374 60.4943 17.408 60.7775 17.9885ZM58.8758 14.6238L57.1973 15.7112C56.8684 15.2036 56.5246 14.7065 56.1664 14.2205L57.7764 13.0339C58.1583 13.5521 58.525 14.0823 58.8758 14.6238ZM56.5831 11.5129L55.0474 12.7941C54.66 12.3298 54.2589 11.8774 53.8446 11.4374L55.3006 10.0663C55.7424 10.5354 56.1701 11.0178 56.5831 11.5129ZM53.9337 8.69936L52.5626 10.1554C52.1226 9.7411 51.6702 9.33996 51.2059 8.95259L52.4871 7.41686C52.9822 7.82991 53.4646 8.25763 53.9337 8.69936ZM50.9661 6.22363L49.7795 7.8336C49.2935 7.47542 48.7964 7.13158 48.2888 6.80268L49.3762 5.12416C49.9177 5.47496 50.4479 5.84167 50.9661 6.22363ZM47.7228 4.12251L46.7387 5.86364C46.2136 5.56686 45.6787 5.28547 45.1347 5.02008L46.0115 3.22254C46.592 3.5057 47.1626 3.80591 47.7228 4.12251ZM44.2492 2.42817L43.4831 4.27563C42.9269 4.04498 42.3623 3.83061 41.7899 3.63309L42.4422 1.74247C43.0531 1.95327 43.6557 2.18205 44.2492 2.42817ZM40.5965 1.16787L40.0604 3.09469C39.4808 2.93342 38.8941 2.78913 38.3008 2.66237L38.7187 0.706517C39.3518 0.841781 39.9779 0.995768 40.5965 1.16787ZM36.8162 0.360043L36.5177 2.33764C35.9238 2.248 35.3241 2.17575 34.7191 2.12144L34.8979 0.129449C35.5431 0.187359 36.1827 0.264414 36.8162 0.360043ZM32.9689 0.0143875C32.6471 0.0048184 32.3241 0 32 0C31.6759 0 31.3529 0.00481842 31.0311 0.0143875L31.0906 2.0135C31.3926 2.00452 31.6957 2 32 2C32.3043 2 32.6074 2.00452 32.9094 2.0135L32.9689 0.0143875ZM29.1021 0.12945L29.2809 2.12144C28.6759 2.17575 28.0762 2.248 27.4823 2.33764L27.1838 0.360044C27.8173 0.264415 28.4569 0.187359 29.1021 0.12945ZM25.2813 0.706518L25.6992 2.66237C25.1059 2.78913 24.5192 2.93342 23.9396 3.09469L23.4035 1.16787C24.0221 0.995768 24.6482 0.841781 25.2813 0.706518ZM21.5578 1.74247L22.2101 3.63309C21.6377 3.83061 21.0731 4.04499 20.5169 4.27563L19.7508 2.42818C20.3443 2.18205 20.9469 1.95327 21.5578 1.74247ZM17.9885 3.22255L18.8653 5.02008C18.3213 5.28547 17.7864 5.56686 17.2613 5.86364L16.2772 4.12251C16.8374 3.80591 17.408 3.50571 17.9885 3.22255ZM14.6238 5.12417L15.7112 6.80269C15.2036 7.13158 14.7065 7.47543 14.2205 7.8336L13.0339 6.22363C13.5521 5.84167 14.0823 5.47496 14.6238 5.12417ZM11.5129 7.41687L12.7941 8.95259C12.3298 9.33996 11.8774 9.7411 11.4374 10.1554L10.0663 8.69937C10.5354 8.25764 11.0178 7.82991 11.5129 7.41687ZM8.69936 10.0663L10.1554 11.4375C9.7411 11.8774 9.33996 12.3298 8.95259 12.7942L7.41686 11.5129C7.82991 11.0178 8.25763 10.5354 8.69936 10.0663ZM6.22363 13.0339L7.8336 14.2205C7.47542 14.7065 7.13158 15.2036 6.80268 15.7112L5.12416 14.6238C5.47496 14.0823 5.84167 13.5521 6.22363 13.0339ZM4.12251 16.2772L5.86364 17.2613C5.56686 17.7864 5.28547 18.3213 5.02008 18.8653L3.22254 17.9885C3.5057 17.408 3.80591 16.8374 4.12251 16.2772ZM2.42817 19.7508L4.27563 20.5169C4.04498 21.0731 3.83061 21.6377 3.63309 22.2101L1.74247 21.5578C1.95327 20.9469 2.18205 20.3443 2.42817 19.7508ZM1.16787 23.4035L3.09469 23.9396C2.93342 24.5192 2.78913 25.1059 2.66237 25.6992L0.706517 25.2813C0.84178 24.6482 0.995767 24.0221 1.16787 23.4035ZM0.360043 27.1838L2.33764 27.4823C2.248 28.0762 2.17575 28.6759 2.12144 29.2809L0.129449 29.1021C0.187359 28.4569 0.264414 27.8173 0.360043 27.1838ZM0.0143875 31.0311C0.0048184 31.3529 0 31.6759 0 32C0 32.3241 0.00481842 32.6471 0.0143875 32.9689L2.0135 32.9094C2.00452 32.6074 2 32.3043 2 32C2 31.6957 2.00452 31.3926 2.0135 31.0906L0.0143875 31.0311ZM0.12945 34.8979L2.12144 34.7191C2.17575 35.3242 2.248 35.9238 2.33764 36.5177L0.360044 36.8162C0.264415 36.1827 0.187359 35.5431 0.12945 34.8979ZM0.706518 38.7188L2.66237 38.3008C2.78913 38.8941 2.93342 39.4808 3.09469 40.0604L1.16787 40.5965C0.995769 39.9779 0.841782 39.3518 0.706518 38.7188ZM1.74247 42.4422L3.63309 41.7899C3.83061 42.3623 4.04499 42.9269 4.27563 43.4831L2.42818 44.2492C2.18205 43.6557 1.95327 43.0531 1.74247 42.4422ZM3.22255 46.0115L5.02008 45.1347C5.28547 45.6787 5.56686 46.2136 5.86364 46.7387L4.12251 47.7228C3.80591 47.1626 3.50571 46.592 3.22255 46.0115ZM5.12417 49.3762L6.80269 48.2888C7.13158 48.7964 7.47543 49.2935 7.8336 49.7795L6.22364 50.9661C5.84167 50.4479 5.47496 49.9177 5.12417 49.3762ZM7.41687 52.4871L8.95259 51.2059C9.33996 51.6702 9.7411 52.1226 10.1554 52.5626L8.69937 53.9337C8.25764 53.4646 7.82991 52.9822 7.41687 52.4871ZM10.0663 55.3006L11.4375 53.8446C11.8774 54.2589 12.3298 54.66 12.7942 55.0474L11.5129 56.5831C11.0178 56.1701 10.5354 55.7424 10.0663 55.3006ZM13.0339 57.7764L14.2205 56.1664C14.7065 56.5246 15.2036 56.8684 15.7112 57.1973L14.6238 58.8758C14.0823 58.525 13.5521 58.1583 13.0339 57.7764ZM16.2772 59.8775L17.2613 58.1364C17.7864 58.4331 18.3213 58.7145 18.8653 58.9799L17.9885 60.7775C17.408 60.4943 16.8374 60.1941 16.2772 59.8775ZM19.7508 61.5718L20.5169 59.7244C21.0731 59.955 21.6377 60.1694 22.2101 60.3669L21.5578 62.2575C20.9469 62.0467 20.3443 61.8179 19.7508 61.5718ZM23.4035 62.8321L23.9396 60.9053C24.5192 61.0666 25.1059 61.2109 25.6992 61.3376L25.2813 63.2935C24.6482 63.1582 24.0221 63.0042 23.4035 62.8321ZM27.1838 63.64L27.4823 61.6624C28.0762 61.752 28.6759 61.8242 29.2809 61.8786L29.1021 63.8706C28.4569 63.8126 27.8173 63.7356 27.1838 63.64ZM31.0311 63.9856L31.0906 61.9865C31.3926 61.9955 31.6957 62 32 62C32.3043 62 32.6074 61.9955 32.9094 61.9865L32.9689 63.9856C32.6471 63.9952 32.3241 64 32 64C31.6759 64 31.3529 63.9952 31.0311 63.9856ZM34.8979 63.8706L34.7191 61.8786C35.3242 61.8242 35.9238 61.752 36.5177 61.6624L36.8162 63.64C36.1827 63.7356 35.5431 63.8126 34.8979 63.8706ZM38.7188 63.2935L38.3008 61.3376C38.8941 61.2109 39.4808 61.0666 40.0604 60.9053L40.5965 62.8321C39.9779 63.0042 39.3518 63.1582 38.7188 63.2935ZM42.4422 62.2575L41.7899 60.3669C42.3623 60.1694 42.9269 59.955 43.4831 59.7244L44.2492 61.5718C43.6557 61.8179 43.0531 62.0467 42.4422 62.2575ZM46.0115 60.7775L45.1347 58.9799C45.6787 58.7145 46.2136 58.4331 46.7387 58.1364L47.7228 59.8775C47.1626 60.1941 46.592 60.4943 46.0115 60.7775ZM49.3762 58.8758L48.2888 57.1973C48.7964 56.8684 49.2935 56.5246 49.7795 56.1664L50.9661 57.7764C50.4479 58.1583 49.9177 58.525 49.3762 58.8758ZM52.4871 56.5831L51.2059 55.0474C51.6702 54.66 52.1226 54.2589 52.5626 53.8446L53.9337 55.3006C53.4646 55.7424 52.9822 56.1701 52.4871 56.5831ZM55.3006 53.9337L53.8446 52.5626C54.2589 52.1226 54.66 51.6702 55.0474 51.2059L56.5831 52.4871C56.1701 52.9822 55.7424 53.4646 55.3006 53.9337ZM57.7764 50.9661L56.1664 49.7795C56.5246 49.2935 56.8684 48.7964 57.1973 48.2888L58.8758 49.3762C58.525 49.9177 58.1583 50.4479 57.7764 50.9661ZM59.8775 47.7228L58.1364 46.7387C58.4331 46.2136 58.7145 45.6787 58.9799 45.1347L60.7775 46.0115C60.4943 46.592 60.1941 47.1626 59.8775 47.7228ZM61.5718 44.2492L59.7244 43.4831C59.955 42.9269 60.1694 42.3623 60.3669 41.7899L62.2575 42.4422C62.0467 43.0531 61.8179 43.6557 61.5718 44.2492ZM62.8321 40.5965L60.9053 40.0604C61.0666 39.4808 61.2109 38.8941 61.3376 38.3008L63.2935 38.7187C63.1582 39.3518 63.0042 39.9779 62.8321 40.5965ZM63.64 36.8162L61.6624 36.5177C61.752 35.9238 61.8242 35.3241 61.8786 34.7191L63.8706 34.8979C63.8126 35.5431 63.7356 36.1827 63.64 36.8162Z" fill="#BDC2C4"/>
</svg>

<svg xmlns="http://www.w3.org/2000/svg" xmlns:xlink="http://www.w3.org/1999/xlink" width="64" height="64" fill="none" xmlns:v="https://vecta.io/nano"><path d="M64 32c0 17.673-14.327 32-32 32S0 49.673 0 32 14.327 0 32 0s32 14.327 32 32z" fill="#e9eaeb"/><mask id="A" mask-type="alpha" maskUnits="userSpaceOnUse" x="3" y="3" width="58" height="58"><path d="M60.667 32c0 15.832-12.834 28.667-28.667 28.667S3.333 47.832 3.333 32 16.168 3.333 32 3.333 60.667 16.168 60.667 32z" fill="#c4c4c4"/></mask><g mask="url(#A)"><path fill-rule="evenodd" d="M18.66 20.68c4.566-.115 8.08 3.967 7.3 8.465l-1.35 7.784c2.263-.438 4.664-.673 7.146-.673 1.763 0 3.484.118 5.143.344L43.8 26.287c2.21-3.295 6.67-4.176 9.966-1.967 3.81 2.553 4.282 7.973.974 11.148l-5.63 5.405c4.13 2.683 6.997 6.502 6.997 11.043v3.48c0 4.73-3.13 8.69-7.505 11.365-4.41 2.695-10.374 4.296-16.858 4.296s-12.448-1.602-16.858-4.296C10.52 64.09 7.39 60.128 7.39 55.397v-3.48c0-3.536 1.76-6.658 4.465-9.1l-.292-14.705a7.29 7.29 0 0 1 7.096-7.422zm-4.778 23a3.85 3.85 0 0 1-.026-.379l-.303-15.248a5.3 5.3 0 0 1 5.157-5.395c3.31-.083 5.856 2.872 5.29 6.136L22.13 39.57c.685-.2 1.4-.38 2.112-.536 2.348-.51 4.876-.8 7.51-.8 2.168 0 4.265.19 6.248.54a3.84 3.84 0 0 1 .464-.954l6.996-10.436c1.597-2.383 4.824-3.02 7.207-1.422 2.754 1.846 3.097 5.765.704 8.062l-7.553 7.25c.637.315 1.246.652 1.823 1.007 4.01 2.47 6.485 5.872 6.485 9.626v3.48c0 7.55-10.017 13.673-22.374 13.673S9.38 62.95 9.38 55.397v-3.48c0-3.088 1.676-5.938 4.502-8.227z" fill="#bdc2c4"/><g fill="#e9eaeb"><path d="M54.127 55.397c0 7.55-10.017 13.673-22.374 13.673S9.38 62.95 9.38 55.397v-3.48h44.747v3.48z"/><path fill-rule="evenodd" d="M24 28.805c.567-3.264-1.98-6.22-5.29-6.136a5.3 5.3 0 0 0-5.157 5.395l.303 15.248.026.38c-2.826 2.29-4.502 5.138-4.502 8.227 0 7.55 10.017 13.673 22.374 13.673s22.374-6.12 22.374-13.673c0-4.295-3.24-8.127-8.308-10.633l7.554-7.25c2.392-2.296 2.05-6.215-.704-8.062-2.383-1.597-5.61-.96-7.207 1.422L38.466 37.83a3.84 3.84 0 0 0-.464.955c-1.983-.352-4.08-.54-6.248-.54-3.445 0-6.708.476-9.623 1.326L24 28.805z"/></g><g fill="#bdc2c4"><use xlink:href="#C"/><g fill-rule="evenodd"><use xlink:href="#D"/><use xlink:href="#D" x="17.154"/></g><use xlink:href="#C" x="17.153"/><path d="M30.242 23.064v-.6c0-.844.17-1.55.506-2.12.36-.57.834-1.13 1.424-1.678a14.95 14.95 0 0 1 1.614-1.361c.528-.38.96-.78 1.298-1.203a2.31 2.31 0 0 0 .507-1.488c0-.823-.295-1.403-.886-1.74-.57-.36-1.53-.538-2.88-.538a10.1 10.1 0 0 0-2.627.348c-.865.21-1.604.485-2.216.823V9.23c.78-.38 1.7-.686 2.754-.918 1.076-.232 2.248-.348 3.514-.348 2.448 0 4.316.538 5.603 1.614 1.287 1.055 1.93 2.51 1.93 4.368 0 1.182-.243 2.142-.728 2.88-.485.718-1.192 1.456-2.12 2.216l-1.963 1.7c-.528.464-.79 1.097-.79 1.9v.412h-4.938zm-.222 5.603v-3.672h5.35v3.672h-5.35z"/></g></g><path fill-rule="evenodd" d="M63.986 32.97l-2-.06L62 32l-.014-.91 2-.06L64 32l-.014.97zm-.115-3.867l-1.992.18-.216-1.8 1.978-.298.23 1.918zm-.577-3.82l-1.956.418-.432-1.76 1.927-.536.46 1.878zm-1.036-3.724l-1.89.652-.642-1.693 1.847-.766.686 1.807zm-1.48-3.57l-1.798.877-.843-1.604 1.74-.984.9 1.71zm-1.902-3.365l-1.678 1.087-1.03-1.49 1.6-1.187 1.1 1.6zm-2.293-3.11l-1.536 1.28-1.203-1.357 1.456-1.37 1.282 1.447zM53.934 8.7l-1.37 1.456-1.357-1.203 1.28-1.536L53.934 8.7zm-2.968-2.476l-1.187 1.6-1.49-1.03 1.087-1.68 1.6 1.1zm-3.243-2.1l-.984 1.74-1.604-.844.877-1.798 1.71.9zM44.25 2.428l-.766 1.847-1.693-.643.652-1.89 1.807.686zm-3.653-1.26l-.536 1.927-1.76-.432.418-1.956 1.878.46zM36.816.36l-.3 1.978-1.8-.216.18-1.992 1.918.23zM32.97.014L32 0l-.97.014.06 2L32 2l.91.014.06-2zM29.102.13l.18 1.992-1.8.216L27.184.36l1.918-.23zm-3.82.577l.418 1.956-1.76.432-.536-1.927 1.878-.46zm-3.724 1.036l.652 1.89-1.693.643-.766-1.847 1.807-.686zm-3.57 1.48l.877 1.798-1.604.844-.984-1.74 1.71-.9zm-3.365 1.902l1.087 1.68-1.49 1.03-1.187-1.6 1.6-1.1zm-3.11 2.293l1.28 1.536-1.357 1.203-1.37-1.456 1.447-1.282zM8.7 10.066l1.456 1.37-1.203 1.357-1.536-1.28L8.7 10.066zm-2.476 2.968l1.6 1.187-1.03 1.49-1.68-1.087 1.1-1.6zm-2.1 3.243l1.74.984-.844 1.604-1.798-.877.9-1.71zM2.428 19.75l1.847.766-.643 1.693-1.89-.652.686-1.807zm-1.26 3.653l1.927.536-.432 1.76-1.956-.418.46-1.878zm-.808 3.78l1.978.298-.216 1.8-1.992-.18.23-1.918zM.014 31.03L0 32l.014.97 2-.06L2 32l.014-.91-2-.06zm.115 3.867l1.992-.18.216 1.8-1.978.3-.23-1.918zm.577 3.82l1.956-.418.432 1.76-1.927.536-.46-1.878zm1.036 3.723l1.89-.652.643 1.693-1.847.766-.686-1.807zm1.48 3.57l1.798-.877.844 1.604-1.74.984-.9-1.71zm1.902 3.365l1.68-1.087 1.03 1.49-1.6 1.187-1.1-1.6zm2.293 3.11l1.536-1.28 1.203 1.357-1.456 1.37-1.282-1.447zm2.65 2.814l1.37-1.456 1.357 1.203-1.28 1.536-1.447-1.282zm2.968 2.476l1.187-1.6 1.49 1.03-1.087 1.678-1.6-1.1zm3.243 2.1l.984-1.74 1.604.843-.877 1.798-1.71-.9zm3.474 1.694l.766-1.847 1.693.642-.652 1.89-1.807-.686zm3.653 1.26l.536-1.927 1.76.432-.418 1.956-1.878-.46zm3.78.808l.298-1.978 1.8.216-.18 1.992-1.918-.23zm3.847.346l.06-2L32 62l.91-.014.06 2L32 64c-.324 0-.647-.005-.97-.014zm3.867-.115l-.18-1.992 1.8-.216.3 1.978-1.918.23zm3.82-.577l-.418-1.956 1.76-.432.536 1.927-1.878.46zm3.723-1.036l-.652-1.89 1.693-.642.766 1.847-1.807.686zm3.57-1.48l-.877-1.798 1.604-.843.984 1.74-1.71.9zm3.365-1.902l-1.087-1.678 1.49-1.03 1.187 1.6-1.6 1.1zm3.11-2.293l-1.28-1.536 1.357-1.203 1.37 1.456-1.447 1.282zm2.814-2.65l-1.456-1.37 1.203-1.357 1.536 1.28-1.282 1.447zm2.476-2.968l-1.6-1.187 1.03-1.49 1.678 1.087-1.1 1.6zm2.1-3.243l-1.74-.984.843-1.604 1.798.877-.9 1.71zm1.694-3.474l-1.847-.766.642-1.693 1.89.652-.686 1.807zm1.26-3.653l-1.927-.536.432-1.76 1.956.418-.46 1.878zm.808-3.78l-1.978-.3.216-1.8 1.992.18-.23 1.918z" fill="#bdc2c4"/><defs ><path id="C" d="M28.522 50.923c0 2.06-1.113 3.73-2.486 3.73s-2.486-1.67-2.486-3.73 1.113-3.73 2.486-3.73 2.486 1.67 2.486 3.73z"/><path id="D" d="M25.68 48.03c.507.76.852 1.867.852 3.14 0 .55.445.994.994.994s.994-.445.994-.994c0-1.61-.433-3.114-1.186-4.243-.748-1.123-1.89-1.972-3.288-1.972s-2.54.85-3.288 1.972c-.753 1.13-1.186 2.633-1.186 4.243 0 .873.127 1.71.36 2.47.16.525.717.82 1.242.66s.82-.717.66-1.242c-.173-.566-.273-1.205-.273-1.887 0-1.273.346-2.38.852-3.14.51-.767 1.108-1.086 1.634-1.086s1.122.32 1.634 1.086z"/></defs></svg>
